X: 1
T: The Crib Of Perches
R: reel
M: 4/4
L: 1/8
K: Dmix
FG|A2AB AGFD|(3EFG AB ~c3A|G2EC G,CEG|cG~G2 AGFG|
A2AB AGFD|(3EFG AB c2Bc|df~f2 (3ed^c dB|AFGE D2:|
K:D
|:Bc|df~f2 af~f2|bfaf gfed|(3Bcd ef gece|gecA ^GABc|
df~f2 af~f2|defd efdA|(3Bcd ec de (3dcB|AFGE D2:|


Tune 1366	Setting 14718

